src/assets/duotone/Stacks.svg

<svg width="24" height="24" viewBox="0 0 24 24"  xmlns="http://www.w3.org/2000/svg">
<path opacity="0.4" d="M12 22C17.5228 22 22 17.5228 22 12C22 6.47715 17.5228 2 12 2C6.47715 2 2 6.47715 2 12C2 17.5228 6.47715 22 12 22Z" />
<path d="M7.50003 11.2503H16.5C16.91 11.2503 17.25 10.9103 17.25 10.5003C17.25 10.0903 16.91 9.7503 16.5 9.7503H13.45L15.44 6.9303C15.68 6.5903 15.6 6.1203 15.26 5.8903C14.92 5.6503 14.45 5.7303 14.22 6.0703L11.92 9.3303L9.62003 6.0703C9.38003 5.7303 8.91002 5.6503 8.58002 5.8903C8.24002 6.1303 8.16002 6.6003 8.40002 6.9303L10.39 9.7503H7.52002C7.11002 9.7503 6.77002 10.0903 6.77002 10.5003C6.77002 10.9103 7.09003 11.2503 7.50003 11.2503Z" />
<path d="M16.5 12.75H7.5C7.09 12.75 6.75 13.09 6.75 13.5C6.75 13.91 7.09 14.25 7.5 14.25H10.37L8.38 17.07C8.14 17.41 8.22 17.88 8.56 18.11C8.69 18.2 8.83999 18.25 8.98999 18.25C9.22999 18.25 9.46001 18.14 9.60001 17.93L11.9 14.67L14.2 17.93C14.35 18.14 14.58 18.25 14.81 18.25C14.96 18.25 15.11 18.21 15.24 18.11C15.58 17.87 15.66 17.4 15.42 17.07L13.43 14.25H16.48C16.89 14.25 17.23 13.91 17.23 13.5C17.23 13.09 16.91 12.75 16.5 12.75Z" />
</svg>

<?xml version="1.0" encoding="UTF-8"?>
<svg width="24" height="24" viewBox="0 0 24 24" xmlns="http://www.w3.org/2000/svg">
 <path d="m12 22c5.5228 0 10-4.4772 10-10 0-5.5228-4.4772-10-10-10-5.5228 0-10 4.4772-10 10 0 5.5228 4.4772 10 10 10z" opacity=".4"/>
 <path d="m7.5 11.25h9c0.41 0 0.75-0.34 0.75-0.75s-0.34-0.75-0.75-0.75h-3.05l1.99-2.82c0.24-0.34 0.16-0.81-0.18-1.04-0.34-0.24-0.81-0.16-1.04 0.18l-2.3 3.26-2.3-3.26c-0.24-0.34-0.71001-0.42-1.04-0.18-0.34 0.24-0.42 0.71-0.18 1.04l1.99 2.82h-2.87c-0.41 0-0.75 0.34-0.75 0.75s0.32001 0.75 0.73001 0.75z"/>
 <path d="m16.5 12.75h-9c-0.41 0-0.75 0.34-0.75 0.75s0.34 0.75 0.75 0.75h2.87l-1.99 2.82c-0.24 0.34-0.16 0.81 0.18 1.04 0.13 0.09 0.27999 0.14 0.42999 0.14 0.24 0 0.47002-0.11 0.61002-0.32l2.3-3.26 2.3 3.26c0.15 0.21 0.38 0.32 0.61 0.32 0.15 0 0.3-0.04 0.43-0.14 0.34-0.24 0.42-0.71 0.18-1.04l-1.99-2.82h3.05c0.41 0 0.75-0.34 0.75-0.75s-0.32-0.75-0.73-0.75z"/>
</svg>
